X: 4
T: The Wren's Nest
R: jig
M: 6/8
L: 1/8
K: Edor
|:EGB ded|c2A ABc|BGE BGE|ABA FED|
EGB ded|c2A ABc|BGE BGE|AFD E3:|
|:~e3 d2B|cBA ~B3|GAB ded|c2A BAG|
~e3 d2B|cBA ~B3|GAB cAB|GED ~E3:|
|:BEE FEE|BED ~E3|BEE GAB|ABA FED|
BEE FEE|BED ~E3|GAB cAB|GED ~E3:|
w:Variación (1ª vez de la parte C en la segunda vuelta del tema)
BEE FE(B|B6)|BEE FE(e|e6)|
BEE FE(d|d3) (5A/2B/2c/2d/2e/2|fed BAF|dBA FED||


Tune 119	Setting 12721

